X: 22
T:Llanofer
M:2/2
L:1/8
Q:200
C:Trad
S:Blodau'r Grug Collection Vol. 1
R:Hornpipe
A:Wales
Z:brian_martin12345@yahoo.com
K:G
Bc|d2d2dcBA|e2e2edcB|d2d2dcBA|FGAB cBAG|d2d2dcBA|!e2e2edcB|GdBG 
FcAF|B2G2G2:||
z2|dBGBd2d2|ecAce2e2|!dBGBd2d2|cAFAc2c2|dBGBd2d2|ecAce2e2|dgfe 
dcBA|G2B2G2:||

